app/dist/common/images/contemporary-amper.svg

<svg height="18" viewBox="0 0 18 18" width="18" xmlns="http://www.w3.org/2000/svg"><path d="m0 0h18v18h-18z" fill="#f0f3fa"/><path d="m7.97 7h-.73c-.15 0-.27.14-.35.33l-1.15 2.93c-.06.17-.18.3-.34.3h-1c-.64 0-1.12-.71-1.12-1.58 0-.86.48-1.54 1.12-1.54h1.44c.03 0 .03-.01.03-.03v-.41h-2.27c-.86 0-1.6.9-1.6 2.05 0 1.13.76 1.95 1.61 1.95h2.09c.22 0 .39-.18.48-.43l.03-.06.33-.84h1.21l.39 1.06c.04.15.17.25.32.27h1.02l-1.14-3.67c-.06-.19-.2-.33-.37-.33zm-1.29 2.22.27-.66c.05-.1.14-.17.22-.17.1 0 .2.09.22.21l.22.62zm7.82 1.34c-.05-.03-.09-.04-.1-.13v-3.43h-1.4v3.48c0 .3.18.52.4.52h2.57c.03 0 .03-.04.03-.06v-.38zm-5.79-3.17v-.39h3.89v.44h-1.18c-.05 0-.12.05-.12.11v3.4c0 .03 0 .05-.03.05h-1.27v-3.43c0-.06-.05-.13-.1-.13h-1.14c-.03 0-.05-.03-.05-.05z" fill="#023694"/></svg>

<!-- by TradingView --><svg width="18" height="18" viewBox="0 0 18 18" xmlns="http://www.w3.org/2000/svg"><path fill="#F0F3FA" d="M0 0h18v18H0z"/><path d="M7.97 7h-.73c-.15 0-.27.14-.35.33l-1.15 2.93c-.06.17-.18.3-.34.3h-1c-.64 0-1.12-.71-1.12-1.58 0-.86.48-1.54 1.12-1.54h1.44c.03 0 .03-.01.03-.03V7H3.6C2.74 7 2 7.9 2 9.05 2 10.18 2.76 11 3.61 11H5.7c.22 0 .39-.18.48-.43l.03-.06.33-.84h1.21l.39 1.06c.04.15.17.25.32.27h1.02L8.34 7.33c-.06-.19-.2-.33-.37-.33ZM6.68 9.22l.27-.66c.05-.1.14-.17.22-.17.1 0 .2.09.22.21l.22.62h-.93Zm7.82 1.34c-.05-.03-.09-.04-.1-.13V7H13v3.48c0 .3.18.52.4.52h2.57c.03 0 .03-.04.03-.06v-.38h-1.5ZM8.71 7.39V7H12.6v.44h-1.18c-.05 0-.12.05-.12.11v3.4c0 .03 0 .05-.03.05H10V7.57c0-.06-.05-.13-.1-.13H8.76c-.03 0-.05-.03-.05-.05Z" fill="#023694"/></svg>
